public/images/logos/lacoste.svg

<svg width="798" height="207" viewBox="0 0 798 207" fill="none" xmlns="http://www.w3.org/2000/svg">
<path d="M599.59 206.18V156.576H607.422L633.463 192.827V156.576H641.447V206.18H633.614L607.57 169.928V206.18H599.59Z" fill="black"/>
<path d="M584.43 206.18V156.576H592.414V206.18H584.43Z" fill="black"/>
<path d="M534.21 206.18L552.641 156.576H562.565L580.844 206.18H572.338L567.936 193.946H547.119L542.716 206.18H534.21ZM549.728 186.711H565.398L557.565 164.93L549.728 186.711Z" fill="black"/>
<path d="M481.173 206.18V156.576H487.886L505.942 177.163L523.927 156.576H530.64V206.18H522.656V169.331L505.942 188.352L489.157 169.331V206.18H481.173Z" fill="black"/>
<path d="M430.232 206.18V156.576H458.81V163.811H438.216V177.237H457.543V184.175H438.216V198.944H459.555V206.18H430.232Z" fill="black"/>
<path d="M383.449 206.18V156.576H399.49C414.713 156.576 425.383 166.347 425.383 181.34C425.383 196.408 414.713 206.18 399.49 206.18H383.449ZM391.433 198.944H399.49C409.861 198.944 417.176 192.007 417.176 181.34C417.176 170.674 409.861 163.811 399.49 163.811H391.433V198.944Z" fill="black"/>
<path d="M334.407 206.18V156.576H342.242L368.282 192.827V156.576H376.266V206.18H368.432L342.391 169.928V206.18H334.407Z" fill="black"/>
<path d="M303.695 207C288.549 207 277.879 196.408 277.879 181.34C277.879 166.347 288.549 155.755 303.695 155.755C318.842 155.755 329.587 166.347 329.587 181.34C329.587 196.408 318.917 207 303.695 207ZM286.086 181.34C286.086 192.007 293.399 199.317 303.695 199.317C314.067 199.317 321.379 192.007 321.379 181.34C321.379 170.674 314.067 163.438 303.695 163.438C293.399 163.438 286.086 170.674 286.086 181.34Z" fill="black"/>
<path d="M252.832 207C237.685 207 227.015 196.408 227.015 181.34C227.015 166.347 237.685 155.755 252.832 155.755C264.173 155.755 272.978 161.648 275.813 171.419L267.606 172.762C265.516 166.72 259.92 163.438 252.832 163.438C242.535 163.438 235.223 170.674 235.223 181.34C235.223 192.007 242.535 199.317 252.832 199.317C259.473 199.317 264.696 196.408 267.307 190.888L275.44 192.827C271.784 201.704 263.502 207 252.832 207Z" fill="black"/>
<path d="M194.276 206.18V156.576H222.854V163.811H202.26V177.237H221.586V184.175H202.26V198.944H223.6V206.18H194.276Z" fill="black"/>
<path d="M173.439 207C162.769 207 156.053 200.958 155.382 192.454L163.142 191.41C163.813 196.482 167.618 199.839 173.439 199.839C177.99 199.839 181.198 197.378 181.198 193.648C181.198 184.1 156.65 185.144 156.65 169.405C156.65 160.678 163.067 155.755 172.394 155.755C181.571 155.755 188.436 161.051 188.436 170.599L181.124 171.569C180.676 165.676 177.169 162.916 172.394 162.916C168.365 162.916 164.858 165.079 164.858 169.256C164.858 178.804 189.406 178.506 189.406 193.275C189.406 201.555 182.84 207 173.439 207Z" fill="black"/>
<path d="M412.96 119.488C445.838 119.488 474.994 97.3687 474.994 59.7442C474.994 22.1198 445.838 0 412.96 0C380.079 0 350.922 22.1198 350.922 59.7442C350.922 97.3687 380.079 119.488 412.96 119.488ZM200.586 117.008H224.573L169.36 2.27398H146.407L95.3298 117.008H116.629L127.796 91.1668H188.799L200.586 117.008ZM709.082 2.27398V117.008H798V98.6089H729.552V68.84H787.868V50.4416H729.552V20.6727H796.347V2.27398H709.082ZM490.711 105.638C495.468 109.359 509.321 119.282 533.931 119.282C558.744 119.282 578.804 105.844 578.804 84.965C578.804 41.3453 515.524 55.196 515.524 31.4225C515.524 24.8073 521.11 19.2256 535.584 19.2256C553.162 19.2256 564.537 27.0813 568.876 30.5956L577.358 13.644C572.187 8.68254 556.055 0 535.584 0C504.978 0 492.364 17.1584 492.364 34.11C492.364 73.8016 555.645 62.4315 555.645 85.9985C555.645 95.9212 545.716 100.263 534.345 100.263C517.182 100.263 503.532 92.6138 497.536 88.2724L490.711 105.638ZM290.953 20.466C308.116 20.466 317.835 29.7687 323.212 34.7302L337.48 20.6727C332.724 15.5045 319.076 0 290.539 0C257.66 0 228.502 22.1198 228.502 59.7442C228.502 97.3687 257.453 119.488 290.332 119.488C315.768 119.488 332.931 105.844 338.514 100.883L327.141 84.7582C318.042 92.4071 303.774 99.0224 290.746 99.0224C267.999 99.0224 250.836 81.8638 250.836 59.7442C250.629 37.6245 267.792 20.466 290.953 20.466ZM412.96 99.0224C390.212 99.0224 373.048 81.8638 373.048 59.7442C373.048 37.6245 390.212 20.466 412.96 20.466C435.706 20.466 452.87 37.6245 452.87 59.7442C452.87 81.8638 435.706 99.0224 412.96 99.0224ZM630.295 20.6727V117.008H650.766V20.6727H690.882V2.27398H591.211V20.6727H630.295ZM20.4722 2.27398H0V117.008H81.4749V98.6089H20.4722V2.27398ZM157.16 22.3265L180.527 73.3881H135.447L157.16 22.3265Z" fill="black"/>
</svg>

<svg xmlns="http://www.w3.org/2000/svg" width="798" height="207" fill="none"><path fill="#000" d="M599.59 206.18v-49.604h7.832l26.041 36.251v-36.251h7.984v49.604h-7.833l-26.044-36.252v36.252h-7.98ZM584.43 206.18v-49.604h7.984v49.604h-7.984ZM534.21 206.18l18.431-49.604h9.924l18.279 49.604h-8.506l-4.402-12.234h-20.817l-4.403 12.234h-8.506Zm15.518-19.469h15.67l-7.833-21.781-7.837 21.781ZM481.173 206.18v-49.604h6.713l18.056 20.587 17.985-20.587h6.713v49.604h-7.984v-36.849l-16.714 19.021-16.785-19.021v36.849h-7.984ZM430.232 206.18v-49.604h28.578v7.235h-20.594v13.426h19.327v6.938h-19.327v14.769h21.339v7.236h-29.323ZM383.449 206.18v-49.604h16.041c15.223 0 25.893 9.771 25.893 24.764 0 15.068-10.67 24.84-25.893 24.84h-16.041Zm7.984-7.236h8.057c10.371 0 17.686-6.937 17.686-17.604 0-10.666-7.315-17.529-17.686-17.529h-8.057v35.133ZM334.407 206.18v-49.604h7.835l26.04 36.251v-36.251h7.984v49.604h-7.834l-26.041-36.252v36.252h-7.984ZM303.695 207c-15.146 0-25.816-10.592-25.816-25.66 0-14.993 10.67-25.585 25.816-25.585 15.147 0 25.892 10.592 25.892 25.585 0 15.068-10.67 25.66-25.892 25.66Zm-17.609-25.66c0 10.667 7.313 17.977 17.609 17.977 10.372 0 17.684-7.31 17.684-17.977 0-10.666-7.312-17.902-17.684-17.902-10.296 0-17.609 7.236-17.609 17.902ZM252.832 207c-15.147 0-25.817-10.592-25.817-25.66 0-14.993 10.67-25.585 25.817-25.585 11.341 0 20.146 5.893 22.981 15.664l-8.207 1.343c-2.09-6.042-7.686-9.324-14.774-9.324-10.297 0-17.609 7.236-17.609 17.902 0 10.667 7.312 17.977 17.609 17.977 6.641 0 11.864-2.909 14.475-8.429l8.133 1.939C271.784 201.704 263.502 207 252.832 207ZM194.276 206.18v-49.604h28.578v7.235H202.26v13.426h19.326v6.938H202.26v14.769h21.34v7.236h-29.324ZM173.439 207c-10.67 0-17.386-6.042-18.057-14.546l7.76-1.044c.671 5.072 4.476 8.429 10.297 8.429 4.551 0 7.759-2.461 7.759-6.191 0-9.548-24.548-8.504-24.548-24.243 0-8.727 6.417-13.65 15.744-13.65 9.177 0 16.042 5.296 16.042 14.844l-7.312.97c-.448-5.893-3.955-8.653-8.73-8.653-4.029 0-7.536 2.163-7.536 6.34 0 9.548 24.548 9.25 24.548 24.019 0 8.28-6.566 13.725-15.967 13.725ZM412.96 119.488c32.878 0 62.034-22.12 62.034-59.744C474.994 22.12 445.838 0 412.96 0c-32.881 0-62.038 22.12-62.038 59.744 0 37.625 29.157 59.744 62.038 59.744Zm-212.374-2.48h23.987L169.36 2.274h-22.953L95.33 117.008h21.299l11.167-25.841h61.003l11.787 25.841ZM709.082 2.274v114.734H798v-18.4h-68.448V68.84h58.316V50.442h-58.316v-29.77h66.795V2.275h-87.265ZM490.711 105.638c4.757 3.721 18.61 13.644 43.22 13.644 24.813 0 44.873-13.438 44.873-34.317 0-43.62-63.28-29.769-63.28-53.543 0-6.615 5.586-12.196 20.06-12.196 17.578 0 28.953 7.855 33.292 11.37l8.482-16.952C572.187 8.683 556.055 0 535.584 0c-30.606 0-43.22 17.158-43.22 34.11 0 39.692 63.281 28.322 63.281 51.889 0 9.922-9.929 14.264-21.3 14.264-17.163 0-30.813-7.65-36.809-11.99l-6.825 17.365ZM290.953 20.466c17.163 0 26.882 9.303 32.259 14.264l14.268-14.057C332.724 15.505 319.076 0 290.539 0c-32.879 0-62.037 22.12-62.037 59.744 0 37.625 28.951 59.744 61.83 59.744 25.436 0 42.599-13.644 48.182-18.605l-11.373-16.125c-9.099 7.65-23.367 14.264-36.395 14.264-22.747 0-39.91-17.158-39.91-39.278-.207-22.12 16.956-39.278 40.117-39.278ZM412.96 99.022c-22.748 0-39.912-17.158-39.912-39.278 0-22.12 17.164-39.278 39.912-39.278 22.746 0 39.91 17.158 39.91 39.278 0 22.12-17.164 39.278-39.91 39.278Zm217.335-78.35v96.336h20.471V20.673h40.116V2.274h-99.671v18.399h39.084ZM20.472 2.275H0v114.734h81.475v-18.4H20.472V2.275ZM157.16 22.326l23.367 51.062h-45.08l21.713-51.062Z"/></svg>
